X:1
T:Safe Tonight
T:Safe Tonight
T:Mrs. Charles E. Rowley
T:Thaddeus Constantine Reade, 1900
T:Public Domain Courtesy of the Cyber Hymnal™
T:Public Domain Courtesy of the Cyber Hymnal™
C:Mrs. Charles E. Rowley
Z:Public Domain
Z:Courtesy of the Cyber Hymnal™
%%score ( 1 2 ) ( 3 4 )
L:1/8
Q:1/4=105
M:9/8
K:G
V:1 treble 
V:2 treble 
V:3 bass 
V:4 bass 
V:1
 (BA)[Gc] [GB]3 [DG]3 | ([FA][DG])[FA] [GB]3 [Gd]3 | (ed)[GB] [FA]3 D3 | (DG)[FA] [GB]6 | %4
w: 1.~Hast- * en, Shep- herd,|to * the mount- ain,|Haste * to ga- ther|in * Thy flock;|
w: 2.~See * the storm is|draw- * ing near- er;|Rage * the winds, the|tor- * rents moan;|
w: 3.~Now * the Shep- herd|climbs * the mount- ain,|While * the e- choing|thun- * ders roar;|
 (BA)[Gc] [GB]3 [DG]3 | ([FA][DG])[FA] [GB]3 [Gd]3 | (ed)[GB] [FA]3 A2 x | (^cB)[GA] [Fd]6 | %8
w: See * the light- ning’s|fier- * y ar- rows!|Hear * the dread- ful|thun- * der shock!|
w: Is * not one still|left * to per- ish,|Un- * pro- tect- ed,|and * a- lone?|
w: While * the storm beats|thick * and blind- ing,|And * the mad- dened|tor- * rents pour.|
 (dc)[FA] [CE]3 [CF]3 | (AG)[CE] [B,D]3 [DG]3 |"^riten." [EG]2 [EG] (GF)[EG] (AG)[CE] | [B,D]6 z3 | %12
w: Then * out spoke the|faith- * ful Shep- herd:|“Long a- go * My flock * I|sought,|
w: And * the Shep- herd|sad- * ly an- swered,|“Count- ing care- * ful- ly, * I|find|
w: Hark! * what means that|voice * that whis- pers,|“Sin- ner, haste * to seek * the|light!|
"^A tempo" (BA)[Gc] [GB]3 [DG]3 | ([FA][DG])[FA] [GB]3 [Gd]3 | (ed)[GB] [FA]3 [GB]3 | %15
w: And * with- in the|fold’s * pro- tect- ion|All * of mine I|
w: Nine- * ty- nine are|safe- * ly fold- ed—|One, * a- las! is|
w: Haste, * and let the|heav’n- * ly Shep- herd|Find * His wan- dering|
 (dc)[DA] [DG]6 ||[M:2/4][Q:1/4=80] [GB]>[GB]"^Refrain" [GB]2 | !fermata![Fd]>[FA] [GB]2 | %18
w: safe- * ly brought.”|||
w: left * be- hind.”|Safe to- night,|safe to- night,|
w: sheep * to- night.”|||
 [FA][FA] [GB][Fc] | !fermata![Fd]>[FA] [GB]2 | [Ec]<[Ec] [Ge]>[Ec] | %21
w: |||
w: Sweet- ly walk- ing|in the light;|Sin- ner, will you|
w: |||
 [DB]>[DA] [DB]<!fermata![Gd] | [FA][FA] [GB][Fc] | !fermata![GB]>[DA] [DG]2 |] %24
w: |||
w: come to Je- sus,|And be fold- ed|safe to- night?|
w: |||
V:2
 G2 x7 | x9 | G2 x3 D3 x | D2 x7 | G2 x7 | x9 | G2 x3 (GFE) x | G2 x7 | F2 x7 | B,2 x7 | %10
 x3 E2 E2 x2 | x9 | G2 x7 | x9 | G2 x7 | F2 x7 ||[M:2/4] x4 | x4 | x4 | x4 | x4 | x4 | x4 | x4 |] %24
V:3
 (DC)[G,E] [G,D]3 [G,B,]3 | (DB,)[D,D] [G,D]3 [G,B,]3 | (CB,)[G,D] [D,D]3 [D,C]3 | %3
 [D,B,]2 [D,D] [G,D]6 | (DC)[G,E] [G,D]3 [G,B,]3 | (DB,)[D,D] [G,D]3 [G,B,]3 | %6
 (CB,)[G,D] [D,D]3 A,3 | A,2 [A,,A,] [D,A,]6 | [D,C]2 [D,C] [D,A,]3 [D,A,]3 | %9
 [G,,G,]2 [G,,G,] [G,,G,]3 [G,B,]3 | [C,C]2 [C,C] [C,C]2 [C,C] [C,C]2 [C,G,] | [G,,G,]6 z3 | %12
 (DC)[G,E] [G,D]3 [G,B,]3 | (DB,)[D,D] [G,D]3 [G,B,]3 | (CB,)[G,D] [D,D]3 [D,D]3 | %15
 [D,A,]2 [D,C] [G,B,]6 ||[M:2/4] [G,D]>[G,D] [G,D]2 | [D,D]>[D,D] [G,D]2 | [D,D][D,D] [D,D][D,A,] | %19
 [D,A,]>[D,A,] G,2 | [C,G,]<[C,G,] [C,C]>[C,G,] | [G,,G,]>[G,,G,] G,<!fermata![G,B,] | %22
 [D,D][D,D] [D,D][D,D] | !fermata![D,D]>[D,C] [G,B,]2 |] %24
V:4
 G,2 x7 | D,2 x7 | G,3 x6 | x9 | G,2 x7 | D,2 x7 | G,3 x2 (E,F,G,) x | A,2 x7 | x9 | x9 | x9 | x9 | %12
 G,2 x7 | D,2 x7 | G,2 x7 | x9 ||[M:2/4] x4 | x4 | x4 | x2 G,2 | x4 | x2 G,/ x3/2 | x4 | x4 |] %24

